X:501
T:Old Faithful
R:Strathspey
O:Cape Breton
C:Jerry Holland
S:SF Scottish Fiddlers Handout
Z:Transcription, chords:Mike Long
M:4/4
L:1/8
K:D
ag|"D"f2 ed "A"c2 Bc|"G"d2 AG "D"F2 ED|\
"G"GFGB "D"AFd>F|"A"F2 E2 E2 ag|\
"D"f2 ed "A"c2 Bc|
"G"d>A B<G "D"F2 ED|\
"G"GBd>B "D"A>F"A"G>E|"D"F2 D2 D2ag||\
"D"f2 ed "A"c2 Bc|"G"d2 AG "D"F2 ED|\
"G"GFGB "D"AFd>F|
"A"F2 E2 E2 ag|\
"D"f2 ef "A"g>edc|"G"d>A B<G "D"F2 ED|\
"G"GBd>B "D"A>F"A"G>E|"D"F2 D2 D2|]
fg|\
"D"abag f2 ef|"A"gage c2 BA|\
"D"dcde f<agf|"A"e2 E2 E2 fg|\
"D"abag f2 ef|
"A"gedc "D"d2 (3(AB=c)|\
"G"BAG>B "D"A>F "A"G<E|"D"F2 D2 D2 fg|\
"D"abag f2 ef|"A"gedc "D"d2 (3(AB=c)|
"G"BAGB "D"AFd<A|"A"F2 E2 EGFE|\
"D"D>F A<d "Em"E>G B<e|"F#m"F>Adf "G"g2 bg|\
"D"a>fe>d "A"c>b a<g|"D"f2 d2 d2|]
